!!!COM: Hugo Wolf
!!!CNT: Deutscher
!!!TXO: Deutsche 
!!!OTL: Der Schreckenberger
!!!ODT: 1888/09/14
!!!ONM: No. 9
!!!LYR: Joseph von Eichendorff
!!!ENC: Brian Bice
!!!YOR: 45 Songs on Poems of Goethe and Eichendorff, Dover Publications, 1995
!!NB: Vocal melody and text only encoded.
**kern	**silbe
*clefG2	*
*k[f#]	*
*M6/8	*
=0	=0
4.r	.
4r	.
{8b	{Aufs
=1	=1
4.ee	Wohl-
8g#	-sein
8a	mei-
8b	-ner
=2	=2
4cc	Da-
8e	-me,
8r	.
8e	ei-
8e-	-ne
=3	=3
4d	Wind-
8dd	-fahn'
8cc	ist
8g	ihr
8a	Pa-
=4	=4
4.b}	-nier,}
4r	.
{8b	{For-
=5	=5
4dd	-tu-
8dd	-na
4dd	ist
8dd	ihr
=6	=6
4cc#	Na-
8b	-me,
4r	.
8b	das
=7	=7
4.dd#	La-
8g#	-ger
8a#	ihr
8cc#	Quar-
=8	=8
4.b}	-tier!}
4r	.
{8b	{Und
=9	=9
4ddn	wen-
8ddn	-det
4ddn	sie
8ddn	sich
=10	=10
(4dd	wei-
8ee-)	|
4ee-	-ter,
8dd-	ich
=11	=11
4cc	ku2mm-
8cc-	-re
4b-	mich
8a-	nicht
=12	=12
4.e-}	drum,}
4r	.
{8e-	{da
=13	=13
4d	drau-
8f#	-ssen
(8a	oh-
8c)	|
8e	-ne
=14	=14
4.dd#	Rei-
4dd#	-ter,
8d#	da
=15	=15
4e	geht
8f#	die
4g	Welt
8ddn	so
=16	=16
4.cc#}	dumm.}
4r	.
{8dd	{Statt
=17	=17
4ffn	Pul-
8b-	-ve-
(8b-	-blitz
8a)	|
8a-	und
=18	=18
4g	Knat-
8dd	-ternh
4r	.
8g	aus
=19	=19
4cc	je-
8cc	-dem
4dd-	wu2-
8dd-	-sten
=20	=20
4.cc}	Haus}
8r	.
{(8ee-	{Ge-
8dd)	|
=21	=21
4cc#	-vat-
8g	-tern
(8g	sehn
8a)	|
8g	und
=22	=22
4f#	schnat-
8dd	-tern
8r	.
8d	al-
8d	-le
=23	=23
4g	Lust
8g	zum
4dd	Land
8cc#	hin-
=24	=24
([4.dd	-aus.
8dd]	|
16cc#)}	|}
16r	.
{8ccn	{For-
=25	=25
4b	-tu-
8b	-na
(8b	weint
8a)	|
8g	vor
=26	=26
4.d#	Ar-
4d#	-ger,
8d#	es
=27	=27
4e	rin-
8cc	-net
4cc	Perl'
8b	auf
=28	=28
[4.a#	Perl':
4a#]}	|}
8r	.
=29	=29
{8dd	{"Wo
8dd	ist
8dd	der
4cc#	Schrek-
8ffn	-ken-
=30	=30
4ffn	-ber-
8dd	-ger?
4.r	.
=31	=31
8dd	Das
8.dd	war
16dd	ein
4ee	and-
8dd	-rer
=32	=32
4.a}	Kerl!"}
4.r	.
=35	=35
4.r	.
4r	.
{8a	{Sie
=36	=36
4a	tut
8a	den
4a	Arm
8a	mir
=37	=37
(4a	rei-
8dd)	|
4.dd	-chen,
=38	=38
4b	Fa-
8b	-ma
8b	bla2st
8b	das
8cc#	Ge-
=39	=39
2.dd#}	-leit,}
=40	=40
{8.ee-	{so
16ee-	zu
8ee-	dem
4ee-	Tem-
8ee-	-pel
=41	=41
4dd	stei-
8b	-gen
4g	wir
8a	der
=42	=42
4.b	Un-
([4.dd	-sterb-
=43	=43
8dd]	|
8ee	|
8dd	|
8cc	|
8b)	|
8a	-lich-
=44	=44
4.g}	-keit.}
4.r	.
*-	*-
